!!!COM: Bach, Johann Sebastian
!!!OTA: Das wohltemperirte Clavier
!!!OPR: Das wohltemperierte Klavier
!!!OTL: Fuga 17, Vol. 2
!!!XEN: The Well-Tempered Clavier, Volume 2, Fugue 17.
!!!ONB: A-flat major, 4-part
!!!SCT: BWV 886b
!!!YEC: Copyright 1994, David Huron
!!!YEM: Rights to all derivative electronic formats reserved.
!!!RNB: The texture increases to five voices in the final three measures.
**kern	**kern	**kern	**kern
*staff2	*staff2	*staff1	*staff1
*clefF4	*clefF4	*clefG2	*clefG2
*k[b-e-a-d-]	*k[b-e-a-d-]	*k[b-e-a-d-]	*k[b-e-a-d-]
*M4/4	*M4/4	*M4/4	*M4/4
*A-:	*A-:	*A-:	*A-:
*MM72	*MM72	*MM72	*MM72
=1	=1	=1	=1
1r	1r	8r	1r
.	.	8ee-	.
.	.	8cc	.
.	.	8ff	.
.	.	8b-	.
.	.	16cc	.
.	.	16dd	.
.	.	8ee-	.
.	.	8e-	.
=2	=2	=2	=2
1r	1r	8a-	1r
.	.	16b-	.
.	.	16cc	.
.	.	[4dd-	.
.	.	16dd-]	.
.	.	16ee-	.
.	.	16cc	.
.	.	16dd-	.
.	.	16b-	.
.	.	16cc	.
.	.	16dd-	.
.	.	16ee-	.
=3	=3	=3	=3
1r	1r	16cc	8r
.	.	16b-	.
.	.	16cc	8aa-
.	.	16ddn	.
.	.	4ee-	8gg
.	.	.	8ccc
.	.	4dd	8ff
.	.	.	16gg
.	.	.	16aa-
.	.	4dd-	8bb-
.	.	.	8b-
=4	=4	=4	=4
1r	1r	4cc	8ee-
.	.	.	16ff
.	.	.	16gg
.	.	4cc-	[4aa-
.	.	8b-	16aa-]
.	.	.	16bb-
.	.	4ee-	16gg
.	.	.	16aa-
.	.	.	16ff
.	.	.	16gg
.	.	8ddn	16aa-
.	.	.	16bb-
=5	=5	=5	=5
1r	1r	8ee-	16gg
.	.	.	16ff
.	.	8b-	16gg
.	.	.	16aa-
.	.	8g	16bb-
.	.	.	16aa-
.	.	8cc	16gg
.	.	.	16bb-
.	.	8f	16aa-
.	.	.	16gg
.	.	16g	16ff
.	.	16a-	16ee-
.	.	[4b-	16dd-
.	.	.	16cc
.	.	.	16dd-
.	.	.	16ee-
=6	=6	=6	=6
*	*	*	*strophe
*	*	*	*^
*	*	*	*S/sic	*S/ossia
1r	8r	16b-]	4ccxx	8ccxx
.	.	16b-	.	.
.	8e-	16a-	.	8ee-xx
.	.	16g	.	.
*	*	*	*S/fin	*S/fin
*	*	*	*v	*v
*	*	*	*S-
.	8c	16a-	4aa-
.	.	16ee-	.
.	8f	16dd-	.
.	.	16cc	.
.	8B-	16dd-	4gg
.	.	16ee-	.
.	16c	16dd-	.
.	16d-	16cc	.
.	8e-	16b-	4gg-
.	.	16dd-	.
.	8E-	16cc	.
.	.	16b-	.
=7	=7	=7	=7
1r	8A-	16cc	4ff
.	.	16dd-	.
.	16B-	16cc	.
.	16c	16b-	.
.	[4d-	16a-	4ff-
.	.	16cc-	.
.	.	16b-	.
.	.	16a-	.
.	16d-]	8gn	8ee-
.	16e-	.	.
.	16c	8ee-	4aa-
.	16d-	.	.
.	16B-	8dd-	.
.	16c	.	.
.	16d-	8b-	8gg
.	16e-	.	.
=8	=8	=8	=8
8r	16c	16ee-	8aa-
.	16B-	16ff	.
8A-	16c	16ee-	8r
.	16d-	16dd-	.
8G	4e-	16cc	4r
.	.	16b-	.
8c	.	16a-	.
.	.	16g	.
8F	4dn	16a-	2r
.	.	16b-	.
16G	.	16a-	.
16A-	.	16g	.
8B-	4d-	16f	.
.	.	16g	.
8BB-	.	16e-	.
.	.	16f	.
=9	=9	=9	=9
8E-	4c	16g	1r
.	.	16a-	.
16F	.	16g	.
16G	.	16f	.
[4A-	4c-	16e-	.
.	.	16g-	.
.	.	16f	.
.	.	16e-	.
16A-]	8B-	8dn	.
16B-	.	.	.
16G	4e-	8b-	.
16A-	.	.	.
16F	.	8a-	.
16G	.	.	.
16A-	8dn	8f	.
16B-	.	.	.
=10	=10	=10	=10
16E-	4e-	8g	1r
16Dn	.	.	.
16E-	.	8b-	.
16F	.	.	.
16G	8r	2ee-	.
16F	.	.	.
16E-	8g	.	.
16G	.	.	.
16F	8a-	.	.
16E-	.	.	.
16F	8cc	.	.
16G	.	.	.
16A-	8f	8ddn	.
16G	.	.	.
16F	8b-	[8dd-	.
16A-	.	.	.
=11	=11	=11	=11
16G	8e-	8dd-]	1r
16F	.	.	.
16G	8r	16bb-	.
16A-	.	16aa-	.
16B-	4r	16gg	.
16A-	.	16ff	.
16G	.	16ee-	.
16B-	.	16dd-	.
16A-	8r	4cc	.
16G	.	.	.
16A-	8e-	.	.
16B-	.	.	.
16c	[4a-	8r	.
16B-	.	.	.
16A-	.	8cc	.
16c	.	.	.
=12	=12	=12	=12
16B-	4a-]	8dd-	1r
16A-	.	.	.
16B-	.	8ff	.
16c	.	.	.
16d-	8g	8b-	.
16c	.	.	.
16B-	[8g-	8ee-	.
16d-	.	.	.
16c	8g-]	8a-	.
16B-	.	.	.
16c	16ee-	8r	.
16d-	16dd-	.	.
16e-	16cc	4r	.
16d-	16b-	.	.
16c	16a-	.	.
16e-	16g	.	.
=13	=13	=13	=13
16d-	8f	8r	1r
16c	.	.	.
16d-	8r	16ff	.
16e-	.	16ee-	.
16f	4r	16dd-	.
16e-	.	16cc	.
16d-	.	16b-	.
16f	.	16a-	.
8e-	4r	16gn	.
.	.	16a-	.
8E-	.	16f	.
.	.	16g	.
8C	4e-	16a-	.
.	.	16g	.
8F	.	[8a-	.
=14	=14	=14	=14
8BB-	4dn	16a-]	1r
.	.	16g	.
16C	.	16a-	.
16Dn	.	16b-	.
8E-	4d-	16g	.
.	.	16f	.
8EE-	.	[8g-	.
8AA-	4c	16g-]	.
.	.	16f	.
16BB-	.	16g-	.
*	*	*strophe	*
*	*	*^	*
*	*	*S/sic	*S/ossia	*
16C	.	16a-xx	16e-xx	.
[4D-	4c-	16f	16f	.
.	.	16e-xx	16gnxx	.
.	.	16fxx	16a-xx	.
.	.	16a-xx	16fxx	.
*	*	*S/fin	*S/fin	*
*	*	*v	*v	*
*	*	*S-	*
=15	=15	=15	=15
16D-]	8B-	8gn	1r
16E-	.	.	.
16C	8e-	4a-	.
16D-	.	.	.
16BB-	8d-	.	.
16C	.	.	.
16D-	8B-	[8g	.
16E-	.	.	.
8AA-	16c	8g]	.
.	16d-	.	.
8C	16B-	8en	.
.	16c	.	.
8D-	16A-	[4f	.
.	16B-	.	.
8AA-	16c	.	.
.	16d-	.	.
=16	=16	=16	=16
16BB-	2G	4f]	1r
16C	.	.	.
16AA-	.	.	.
16BB-	.	.	.
16GG	.	4en	.
16AA-	.	.	.
16BB-	.	.	.
16C	.	.	.
16FF	8A-	8f	.
16C	.	.	.
[8F	8r	8a-	.
16F]	4r	8g	.
16E-	.	.	.
16D-	.	8cc	.
16C	.	.	.
=17	=17	=17	=17
16D-	1r	8f	1r
16c	.	.	.
16B-	.	16g	.
16A-	.	16a-	.
16G	.	8b-	.
16F	.	.	.
16E-	.	8B-	.
16D-	.	.	.
16C	.	8e-	.
16B-	.	.	.
16A-	.	16f	.
16G	.	16g	.
16F	.	[4a-	.
16E-	.	.	.
16Dn	.	.	.
16C	.	.	.
=18	=18	=18	=18
8BB-	2r	16a-]	1r
.	.	16b-	.
4E-	.	16g	.
.	.	16a-	.
.	.	16f	.
.	.	16g	.
[8D-	.	16a-	.
.	.	16b-	.
16D-]	8r	4g	.
16C	.	.	.
16D-	8e-	.	.
16E-	.	.	.
16F	8c	4a-	.
16E-	.	.	.
16D-	8f	.	.
16C	.	.	.
=19	=19	=19	=19
16D-	8B-	4g	1r
16F	.	.	.
16E-	16c	.	.
16D-	16d-	.	.
16C	8e-	4g-	.
16D-	.	.	.
[8E-	8E-	.	.
16E-]	8A-	4f	.
16E-	.	.	.
16D-	16B-	.	.
16C	16c	.	.
16BB-	[4d-	4f-	.
16C-	.	.	.
*strophe	*	*	*
*^	*	*	*
*S/sic	*S/ossia	*	*	*
16BB-xx	16AA-xx	.	.	.
16AA-xx	16BB-xx	.	.	.
*S/fin	*S/fin	*	*	*
*v	*v	*	*	*
*S-	*	*	*
=20	=20	=20	=20
8GG	16d-]	8e-	1r
.	16e-	.	.
8AA-	16c	4a-	.
.	16d-	.	.
8D-	16B-	.	.
.	16c	.	.
8E-	16d-	[8g-	.
.	16e-	.	.
8A-	8c	16g-]	.
.	.	16a-	.
8B-	4d-	16f	.
.	.	16g-	.
8G-	.	16e-	.
.	.	16f	.
8A-	[8c	16g-	.
.	.	16a-	.
=21	=21	=21	=21
8D-	16c]	8f	1r
.	16e-	.	.
8G-	16d-	4b-	.
.	16e-	.	.
8E-	16c	.	.
.	16d-	.	.
8F	16e-	[8a-	.
.	16f	.	.
8B-	8dn	16a-]	.
.	.	16b-	.
8c	4e-	16gn	.
.	.	16a-	.
8A-	.	16f	.
.	.	16g	.
8B-	[8d-	16a-	.
.	.	16b-	.
=22	=22	=22	=22
4E-	16d-]	4g	8r
.	16d-	.	.
.	16c	.	8ee-
.	16B-	.	.
4A-	16A-	8r	8cc
.	16B-	.	.
.	16c	8f	8ff
.	16dn	.	.
4G	16e-	4g	8b-
.	16f	.	.
.	16e-	.	16cc
.	16d-	.	16dd-
4G-	16c	8r	8ee-
.	16e-	.	.
.	16d-	8a-	8e-
.	16c	.	.
=23	=23	=23	=23
4F	16d-	8d-	8a-
.	16e-	.	.
.	16d-	8r	16b-
.	16c	.	16cc
4F-	16B-	8r	[4dd-
.	16c-	.	.
.	16A-	[8b-	.
.	16B-	.	.
8E-	8Gn	8b-]	16dd-]
.	.	.	16ee-
8Fn	4A-	8a-	16cc
.	.	.	16dd-
8D-	.	8f	16b-
.	.	.	16cc
8E-	[8G	[8e-	16dd-
.	.	.	16ee-
=24	=24	=24	=24
16AA-	8G]	8e-]	8cc
16C	.	.	.
16BB-	8r	8cc	8een
16AA-	.	.	.
[4D-	16r	8a-	4ff
.	16F	.	.
.	16G	8dd-	.
.	16A-	.	.
16D-]	8B-	8g	4ee
16d-	.	.	.
16c	8r	16a-	.
16B-	.	16b-	.
16An	4r	8cc	4ee-
16B-	.	.	.
16c	.	8c	.
16A	.	.	.
=25	=25	=25	=25
16B-	1r	8f	4ddn
16c	.	.	.
16B-	.	16g	.
16A-	.	16a-	.
16G	.	[4b-	4dd-
16A-	.	.	.
16B-	.	.	.
16G	.	.	.
8A-	.	16b-]	8cc
.	.	16cc	.
8d-	.	16a-	4ff
.	.	16b-	.
8B-	.	16g	.
.	.	16a-	.
8c	.	16b-	[8ee-
.	.	16cc	.
=26	=26	=26	=26
4F	1r	16a-	8ee-]
.	.	16b-	.
.	.	16g	8e-
.	.	16a-	.
8r	.	16f	8dn
.	.	16g	.
8B-	.	16a-	[8ddn
.	.	16b-	.
4E-	.	16g	8dd]
.	.	16a-	.
.	.	16f	8d
.	.	16g	.
8r	.	16e-	8c
.	.	16f	.
8A-	.	16g	[8cc
.	.	16a-	.
=27	=27	=27	=27
8Dn	1r	16f	8cc]
.	.	16g	.
8F	.	16e-	8c
.	.	16f	.
8G	.	16dn	8Bn
.	.	16e-	.
8GG	.	16f	8bn
.	.	16g	.
8C	.	4e-	16cc
.	.	.	16b-
8G	.	.	16cc
.	.	.	16ddn
[4c	.	8r	16ee-
.	.	.	16dd
.	.	8e-	16cc
.	.	.	16ee-
=28	=28	=28	=28
4c]	1r	8f	16ddn
.	.	.	16cc
.	.	8a-	16dd
.	.	.	16ee-
8Bn	.	8dn	16ff
.	.	.	16ee-
[8B-	.	8g	16dd
.	.	.	16ff
8B-]	.	8c	16een
.	.	.	16dd
16g	.	8r	16ee
16f	.	.	16ff
16en	.	4r	16gg
16dn	.	.	16ff
16c	.	.	16ee
16B-	.	.	16gg
=29	=29	=29	=29
4A-	1r	16r	8ff
.	.	16en	.
.	.	16f	8cc
.	.	16g	.
8r	.	16a-	2ff
.	.	16g	.
8A-	.	16f	.
.	.	16a-	.
8B-	.	16g	.
.	.	16f	.
8d-	.	16g	.
.	.	16a-	.
8G	.	16b-	8een
.	.	16a-	.
8c	.	16g	[8ee-
.	.	16b-	.
=30	=30	=30	=30
8F	1r	16an	8ee-]
.	.	16g	.
8r	.	16a	16ccc
.	.	16b-	16bb-
4r	.	16cc	16aan
.	.	16b-	16gg
.	.	16a	16ff
.	.	16cc	16ee-
16r	.	8b-	4dd-
16AAn	.	.	.
16BB-	.	8f	.
16C	.	.	.
16D-	.	[4b-	8r
16C	.	.	.
16BB-	.	.	8dd-
16D-	.	.	.
=31	=31	=31	=31
16C	1r	4b-]	8ee-
16BB-	.	.	.
16C	.	.	8gg-
16D-	.	.	.
16E-	.	8an	8cc
16D-	.	.	.
16C	.	[8a-	8ff
16E-	.	.	.
16Dn	.	8a-]	8b-
16C	.	.	.
16D	.	16ff	8r
16E-	.	16ee-	.
16F	.	16ddn	4r
16E-	.	16cc	.
16D	.	16b-	.
16F	.	16a-	.
=32	=32	=32	=32
4E-	8r	16g-	[2b-
.	.	16a-	.
.	8B-	16g-	.
.	.	16f	.
4r	8G-	16e-	.
.	.	16f	.
.	8c-	16g-	.
.	.	16e-	.
2r	8F	16f	16b-]
.	.	16g-	16b-
.	16G-	16f	16a-
.	16A-	16e-	16g-
.	8B-	16dn	16f
.	.	16e-	16g-
.	8BB-	16f	16a-
.	.	16d	16f
=33	=33	=33	=33
1r	8E-	16e-	16g-
.	.	16f	16a-
.	16F	16e-	16g-
.	16G-	16d-	16f
.	[4A-	16c	16e-
.	.	16dn	16f
.	.	16e-	16g-
.	.	16c	16e-
.	16A-]	8d	8f
.	16B-	.	.
.	16G-	4e-	8g-
.	16A-	.	.
.	16F	.	8a-
.	16G-	.	.
.	16A-	8d	8f
.	16B-	.	.
=34	=34	=34	=34
1r	16G-	8e-	8b-
.	16A-	.	.
.	16F	8a-	8ddn
.	16G-	.	.
.	16E-	8g-	8.ee-
.	16F	.	.
.	16Gn	8cc	.
.	16An	.	16ff
.	16B-	8f	8dd-
.	16c	.	.
.	16A-	8r	8cc
.	16B-	.	.
*	*	*strophe	*
*	*	*^	*
*	*	*S/sic	*S/ossia	*
.	16G	4rxx	8rxx	8b-
.	16An	.	.	.
.	16B-	.	8g-xx	8ee-
.	16c	.	.	.
=35	=35	=35	=35	=35
1r	16An	4rxx	8fxx	8cc
.	16F	.	.	.
.	16G	.	8rxx	8ff
.	16A	.	.	.
*	*	*S/fin	*S/fin	*
*	*	*v	*v	*
*	*	*S-	*
.	16B-	4b-	8dd-
.	16c	.	.
.	16d-	.	8gg-
.	16e-	.	.
.	16f	4an	8cc
.	16g-	.	.
.	16f	.	16dd-
.	16e-	.	16ee-
.	16dn	4a-	8ff
.	16B-	.	.
.	16c	.	8f
.	16d	.	.
=36	=36	=36	=36
1r	16e-	4gn	8b-
.	16f	.	.
.	16e-	.	16cc
.	16d-	.	16dd-
.	16c	4g-	[4ee-
.	16An	.	.
.	16B-	.	.
.	16c	.	.
.	8d-	8f	16ee-]
.	.	.	16ff
.	8B-	4b-	16dd-
.	.	.	16ee-
.	[4f	.	16cc
.	.	.	16dd-
.	.	8a-	16ee-
.	.	.	16ff
=37	=37	=37	=37
4r	16f]	4.g-	4b-
.	16f	.	.
.	16e-	.	.
.	16d-	.	.
8r	16e-	.	4cc
.	16d-	.	.
8A-	16c	8e-	.
.	16B-	.	.
8F	8A-	16a-	2dd-
.	.	16g-	.
8B-	8d-	16f	.
.	.	16a-	.
8E-	8B-	16g-	.
.	.	16a-	.
16F	8r	16g-	.
16G-	.	16f	.
=38	=38	=38	=38
8A-	8c	16e-	4cc
.	.	16f	.
8AA-	8r	16g-	.
.	.	16e-	.
8D-	8A-	16f	4cc-
.	.	16g-	.
16E-	8r	16f	.
16F	.	16e-	.
[4G-	8B-	16d-	4b-
.	.	16e-	.
.	8r	16f	.
.	.	16d-	.
16G-]	4r	16e-	[4b--
16A-	.	16f-	.
16F-	.	16e-	.
16G-	.	16d-	.
=39	=39	=39	=39
16E-	8r	4cn	8b--]
16F-	.	.	.
16G-	[8e-	.	[8a-
16A-	.	.	.
16D-	8e-]	[4f-	4a-_
16E-	.	.	.
16C-	8A-	.	.
16D-	.	.	.
16BB-	8d-	8f-]	8a-]
16C-	.	.	.
16D-	8B-	4e-	8gn
16E-	.	.	.
16AA-	8c-	.	8a-
16BB-	.	.	.
16GG-	8r	8e-	8b-
16AA-	.	.	.
=40	=40	=40	=40
16FFn	1r	8a-	8ccn
16GG-	.	.	.
16AA-	.	8fn	8ddn
16BB-	.	.	.
8EE-	.	8g-	16ee-
.	.	.	16ff-
8r	.	8gn	16dd-
.	.	.	16ee-
2r	.	16a-	16cc-
.	.	16b-	16dd-
.	.	16g-	16ee-
.	.	16a-	16ff-
.	.	16fn	16dd-
.	.	16gn	16ee-
.	.	16a-	16cc-
.	.	16b-	16dd-
=41	=41	=41	=41
1r	8r	4g	16b-
.	.	.	16ee-
.	8e-	.	16ff
.	.	.	16gg
.	8c	16r	[4aa-
.	.	16ee-	.
.	8f	16ddn	.
.	.	16cc	.
.	8B-	8dd	16aa-]
.	.	.	16aa-
.	16c	[8b-	16gg
.	16dn	.	16ff
.	8e-	16b-]	8gg
.	.	16dd-	.
.	8E-	16cc	[8gg-
.	.	16b-	.
=42	=42	=42	=42
2r	8A-	8cc	16gg-]
.	.	.	16gg-
.	16B-	[8a-	16ff
.	16c	.	16ee-
.	[4d-	16a-]	8ff
.	.	16cc-	.
.	.	16b-	8ff-
.	.	16a-	.
8r	16d-]	8gn	[2ee-
.	16e-	.	.
8A-	16c	8a-	.
.	16d-	.	.
8G	16B-	8b-	.
.	16c	.	.
8c	16d-	8g	.
.	16e-	.	.
=43	=43	=43	=43
8F	4c	8a-	16ee-]
.	.	.	16ee-
16G	.	[8f	16ddn
16A-	.	.	16cc
8B-	[4B-	16f]	8dd
.	.	16a-	.
8BB-	.	16g	[8dd-
.	.	16f	.
8E-	4B-]	8g	16dd-]
.	.	.	16dd-
16F	.	[8e-	16cc
16G	.	.	16b-
[4A-	16A-	16e-]	8cc
.	16g-	16b-	.
.	16f	16a-	8cc-
.	16e-	16g-	.
=44	=44	=44	=44
16A-]	8dn	8f	8b-
16B-	.	.	.
16G-	8e-	8b--	8ccn
16A-	.	.	.
16F-	8f-	8a-	[4dd-
16G-	.	.	.
16A-	8d-	8f-	.
16B--	.	.	.
16G-	8e-	8b-	4.dd-]
16A-	.	.	.
16F-	8f-	8a-	.
16G-	.	.	.
16E-	8g-	8b-	.
16F-	.	.	.
16G-	8e-	8a-	8cc
16A-	.	.	.
=45	=45	=45	=45
16D-	4f-	4b--	4dd-
16d-	.	.	.
16c-	.	.	.
16d-	.	.	.
16B--	4r	4r	4r
16d-	.	.	.
16F-	.	.	.
16B--	.	.	.
16D-	4b--	4dd-	4ff-
16B--	.	.	.
16A-	.	.	.
16B--	.	.	.
16F-	4r	4r	4r
16B--	.	.	.
16D-	.	.	.
16F-	.	.	.
=46	=46	=46	=46
16BB-	4dd-	4ff-	4ggn
16F-	.	.	.
16E-	.	.	.
16F-	.	.	.
16D-	4r	4r	4r
16F-	.	.	.
16BB-	.	.	.
16D-	.	.	.
4GG;	4b-;	4dd-; 4ee-;	4bb-;
16r	4r	4r	16r
16E-	.	.	16dd-
16Fn	.	.	16cc
16G	.	.	16b-
=47	=47	=47	=47
16A-	2r	2r	16cc
16c	.	.	16a-
16B-	.	.	16b-
16A-	.	.	16cc
16G	.	.	16dd-
16F	.	.	16ee-
16E-	.	.	16ff
16D-	.	.	16gg
8C	4r	4r	16aa-
.	.	.	16ee-
8D-	.	.	16ff
.	.	.	16dd-
8E-	8r	8r	16cc
.	.	.	16ff
8F	8A-	8B-	16ddn
.	.	.	16ee-
!! Five-voice material to the end:
=48	=48	=48	=48
*	*^	*	*
8E-	2r	4A-	8c	8.a-
8Dn	.	.	8c-	.
.	.	.	.	32f
.	.	.	.	32g
8E-	.	8G	8B-	8.gT
8En	.	8B-	8d-	.
.	.	.	.	32f
.	.	.	.	32g
8.F	4r	8A-	16cn	8.a-
.	.	.	[8.f	.
.	.	8d-	.	.
16G	.	.	.	16b-
8A-	4A-	8c	16f]	8.cc
.	.	.	16e-	.
8F	.	8f	8a-	.
.	.	.	.	16ddn
=49	=49	=49	=49	=49
4E-	4G	8B-	4b-	[2ee-
.	.	16c	.	.
.	.	16d-	.	.
8r	4G-	8e-	4b--	.
8C	.	8E-	.	.
4D-	4F	8A-	4a-	8ee-]
.	.	16B-	.	16dd-
.	.	16c	.	16cc
16r	4F-	[4d-	8r	16b-
16BB-	.	.	.	16g
16C-	.	.	8A-	8a-
16D-	.	.	.	.
=50	=50	=50	=50	=50
8GG	2E-	16d-]	2e-	8b-
.	.	16e-	.	.
8AA-	.	16c	.	4a-
.	.	16d-	.	.
4EE-	.	16B-	.	.
.	.	16c	.	.
.	.	16d-	.	8g
.	.	16e-	.	.
2AA-	2E-	2A- 2c	2e-	2a-
==	==	==	==	==
*-	*-	*-	*-	*-
!!!CDT: 1685/3/-1750/7/28
!!!OCY: Deutschland
!!!PPP: Leipzig
!!!ODT: 1729//-1734//
!!!PDT: 1739//-1742//
!!!AFR: fuga; fugue
!!!AST: polyphony
!!!AMT: simple quadruple
!!!SCA: Bach-Werke-Verzeichnis
!!!YOR: Bach Gesellschaft
!!!SMS: British Library, various
!!!AIN: cemba; clavi
!!!EEV: 1.0
!!!RDT: 1986 December 9
!!!YER: 1994 August 10
!!!EFL: 41/48
!!!VTS: 627735612
